illustrations/subscription-success.svg

<svg height="82" viewBox="0 0 78 82" width="78" xmlns="http://www.w3.org/2000/svg"><g fill="none"><path d="m2.12 42c1.527 19.032 17.455 34 36.88 34 .7395013 0 1.4739344-.021693 2.2026978-.0644774 1.4965395 2.0554389 3.340896 3.8420683 5.4464611 5.2730502-2.4676823.5185863-5.0265494.7914272-7.6491589.7914272-20.435 0-37-16.565-37-37 0-1.01.04-2.01.12-3zm73.76 0c.08.99.12 1.99.12 3 0 1.2839478-.0653938 2.552618-.1930327 3.8028617-.2809632-.3318214-.5707284-.6547083-.8696809-.9687693.4647296-1.8911033.7827449-3.8402973.9427136-5.8340924z" fill="#f9f9f9"/><path d="m39 0c21.54 0 39 17.46 39 39 0 3.706265-.5169229 7.291737-1.4826089 10.6882562-.9631988-1.265049-2.0591631-2.4218899-3.2677586-3.4503347.4920584-2.3346493.7503675-4.7561191.7503675-7.2379215 0-19.33-15.67-35-35-35s-35 15.67-35 35 15.67 35 35 35c.3128981 0 .6248372-.0041059.9357663-.0122668.7970016 1.3793572 1.7396903 2.66489 2.8069649 3.8348034-1.2319302.1174909-2.4803236.1774634-3.7427312.1774634-21.54 0-39-17.46-39-39s17.46-39 39-39z" fill="#eee"/><path d="m48 20c4.418 0 8 3.582 8 8l.0007145 13.2027401c-1.3782136.1878735-2.7158179.5033861-4.0005119.9342367l-.0002026-14.1369768c0-2.21-1.79-4-4-4h-18c-2.21 0-4 1.79-4 4v22c0 2.21 1.79 4 4 4l8.9192997-.0002904c-.5718769 1.2739629-1.0260813 2.6122152-1.3487778 4.0009216l-7.5705219-.0006312c-4.418 0-8-3.582-8-8v-22c0-4.418 3.582-8 8-8z" fill="#e1dbf2"/><path d="m45 44c.6622069 0 1.2489946.3214296 1.6129334.8168593-1.352335.9224284-2.594991 1.9910562-3.7067279 3.1833574l-9.9062055-.0002167c-1.105 0-2-.895-2-2s.895-2 2-2zm0-7c1.105 0 2 .895 2 2s-.895 2-2 2h-12c-1.105 0-2-.895-2-2s.895-2 2-2zm-4-7c1.105 0 2 .895 2 2s-.895 2-2 2h-8c-1.105 0-2-.895-2-2s.895-2 2-2z" fill="#6b4fbb"/><g transform="translate(40 44)"><path d="m19 38c-10.493 0-19-8.507-19-19s8.507-19 19-19 19 8.507 19 19-8.507 19-19 19zm0-4c8.284 0 15-6.716 15-15s-6.716-15-15-15-15 6.716-15 15 6.716 15 15 15z" fill="#b3e6c8"/><path d="m17.5857864 19.8284271 5.6568543-5.6568542c.7810486-.7810486 2.0473785-.7810486 2.8284271 0s.7810486 2.0473785 0 2.8284271l-7.0710678 7.0710678c-.7810486.7810486-2.0473785.7810486-2.8284271 0l-4.2426407-4.2426407c-.7810486-.7810486-.7810486-2.0473785 0-2.8284271s2.0473785-.7810486 2.8284271 0z" fill="#1aaa55"/></g></g></svg>

<?xml version="1.0" encoding="UTF-8"?>
<svg width="78px" height="82px" viewBox="0 0 78 82" version="1.1" xmlns="http://www.w3.org/2000/svg" xmlns:xlink="http://www.w3.org/1999/xlink">
    <!-- Generator: Sketch 63.1 (92452) - https://sketch.com -->
    <title>subscription-success</title>
    <desc>Created with Sketch.</desc>
    <g id="subscription-success" stroke="none" stroke-width="1" fill="none" fill-rule="evenodd">
        <g id="illustrations_subscription-success" fill-rule="nonzero">
            <path d="M39,-1.42108547e-14 C60.54,-1.42108547e-14 78,17.46 78,39 C78,42.706265 77.4830771,46.291737 76.5173911,49.6882562 C75.5541923,48.4232072 74.458228,47.2663663 73.2496325,46.2379215 C73.7416909,43.9032722 74,41.4818024 74,39 C74,19.67 58.33,4 39,4 C19.67,4 4,19.67 4,39 C4,58.33 19.67,74 39,74 C39.3128981,74 39.6248372,73.9958941 39.9357663,73.9877332 C40.7327679,75.3670904 41.6754566,76.6526232 42.7427312,77.8225366 C41.510801,77.9400275 40.2624076,78 39,78 C17.46,78 -7.10542736e-15,60.54 -7.10542736e-15,39 C-7.10542736e-15,17.46 17.46,-1.42108547e-14 39,-1.42108547e-14 Z" id="Path" fill="#EEEEEE"></path>
            <path d="M48,20 C52.418,20 56,23.582 56,28 L56.0007145,41.2027401 C54.6225009,41.3906136 53.2848966,41.7061262 52.0002026,42.1369768 L52,28 C52,25.79 50.21,24 48,24 L30,24 C27.79,24 26,25.79 26,28 L26,50 C26,52.21 27.79,54 30,54 L38.9192997,53.9997096 C38.3474228,55.2736725 37.8932184,56.6119248 37.5705219,58.0006312 L30,58 C25.582,58 22,54.418 22,50 L22,28 C22,23.582 25.582,20 30,20 L48,20 Z" id="Path" fill="#E1DBF2"></path>
            <path d="M45,44 C45.6622069,44 46.2489946,44.3214296 46.6129334,44.8168593 C45.2605984,45.7392877 44.0179424,46.8079155 42.9062055,48.0002167 L33,48 C31.895,48 31,47.105 31,46 C31,44.895 31.895,44 33,44 L45,44 Z M45,37 C46.105,37 47,37.895 47,39 C47,40.105 46.105,41 45,41 L33,41 C31.895,41 31,40.105 31,39 C31,37.895 31.895,37 33,37 L45,37 Z M41,30 C42.105,30 43,30.895 43,32 C43,33.105 42.105,34 41,34 L33,34 C31.895,34 31,33.105 31,32 C31,30.895 31.895,30 33,30 L41,30 Z" id="Shape" fill="#6B4FBB"></path>
            <g id="Group" transform="translate(40.000000, 44.000000)">
                <path d="M19,38 C8.507,38 0,29.493 0,19 C0,8.507 8.507,0 19,0 C29.493,0 38,8.507 38,19 C38,29.493 29.493,38 19,38 Z M19,34 C27.284,34 34,27.284 34,19 C34,10.716 27.284,4 19,4 C10.716,4 4,10.716 4,19 C4,27.284 10.716,34 19,34 Z" id="Shape" fill="#B3E6C8"></path>
                <path d="M17.5857864,19.8284271 L23.2426407,14.1715729 C24.0236893,13.3905243 25.2900192,13.3905243 26.0710678,14.1715729 C26.8521164,14.9526215 26.8521164,16.2189514 26.0710678,17 L19,24.0710678 C18.2189514,24.8521164 16.9526215,24.8521164 16.1715729,24.0710678 L11.9289322,19.8284271 C11.1478836,19.0473785 11.1478836,17.7810486 11.9289322,17 C12.7099808,16.2189514 13.9763107,16.2189514 14.7573593,17 L17.5857864,19.8284271 Z" id="Path" fill="#1AAA55"></path>
            </g>
        </g>
    </g>
</svg>
